img/people.svg

<svg width="48" height="48" viewBox="0 0 48 48" fill="none" xmlns="http://www.w3.org/2000/svg">
<path opacity="0.4" d="M35.0601 15.54C34.9201 15.52 34.7801 15.52 34.6401 15.54C31.5401 15.44 29.0801 12.9 29.0801 9.78C29.0801 6.6 31.6601 4 34.8601 4C38.0401 4 40.6401 6.58 40.6401 9.78C40.6201 12.9 38.1601 15.44 35.0601 15.54Z" fill="#191A23"/>
<path opacity="0.4" d="M41.5802 29.4001C39.3402 30.9001 36.2002 31.46 33.3002 31.08C34.0602 29.44 34.4602 27.6201 34.4802 25.7001C34.4802 23.7001 34.0402 21.8001 33.2002 20.1401C36.1602 19.7401 39.3002 20.3001 41.5602 21.8001C44.7202 23.8801 44.7202 27.3001 41.5802 29.4001Z" fill="#191A23"/>
<path opacity="0.4" d="M12.8798 15.54C13.0198 15.52 13.1598 15.52 13.2998 15.54C16.3998 15.44 18.8598 12.9 18.8598 9.78C18.8598 6.6 16.2798 4 13.0798 4C9.8998 4 7.2998 6.58 7.2998 9.78C7.3198 12.9 9.7798 15.44 12.8798 15.54Z" fill="#191A23"/>
<path opacity="0.4" d="M13.1002 25.7C13.1002 27.64 13.5202 29.48 14.2802 31.14C11.4602 31.44 8.52023 30.84 6.36023 29.42C3.20023 27.32 3.20023 23.8999 6.36023 21.7999C8.50023 20.3599 11.5202 19.78 14.3602 20.1C13.5402 21.78 13.1002 23.68 13.1002 25.7Z" fill="#191A23"/>
<path d="M24.2396 31.74C24.0796 31.72 23.8996 31.72 23.7196 31.74C20.0396 31.62 17.0996 28.6 17.0996 24.88C17.0996 21.08 20.1596 18 23.9796 18C27.7796 18 30.8596 21.08 30.8596 24.88C30.8596 28.6 27.9396 31.62 24.2396 31.74Z" fill="#191A23"/>
<path d="M17.7396 35.88C14.7196 37.9 14.7196 41.22 17.7396 43.22C21.1796 45.52 26.8196 45.52 30.2596 43.22C33.2796 41.2 33.2796 37.88 30.2596 35.88C26.8396 33.58 21.1996 33.58 17.7396 35.88Z" fill="#191A23"/>
</svg>

<svg xmlns="http://www.w3.org/2000/svg" width="48" height="48" fill="none"><path fill="#191A23" d="M35.06 15.54q-.21-.03-.42 0c-3.1-.1-5.56-2.64-5.56-5.76C29.08 6.6 31.66 4 34.86 4c3.18 0 5.78 2.58 5.78 5.78-.02 3.12-2.48 5.66-5.58 5.76M41.58 29.4c-2.24 1.5-5.38 2.06-8.28 1.68.76-1.64 1.16-3.46 1.18-5.38 0-2-.44-3.9-1.28-5.56 2.96-.4 6.1.16 8.36 1.66 3.16 2.08 3.16 5.5.02 7.6M12.88 15.54q.21-.03.42 0c3.1-.1 5.56-2.64 5.56-5.76C18.86 6.6 16.28 4 13.08 4 9.9 4 7.3 6.58 7.3 9.78c.02 3.12 2.48 5.66 5.58 5.76M13.1 25.7c0 1.94.42 3.78 1.18 5.44-2.82.3-5.76-.3-7.92-1.72-3.16-2.1-3.16-5.52 0-7.62 2.14-1.44 5.16-2.02 8-1.7-.82 1.68-1.26 3.58-1.26 5.6" opacity=".4"/><path fill="#191A23" d="M24.24 31.74c-.16-.02-.34-.02-.52 0-3.68-.12-6.62-3.14-6.62-6.86 0-3.8 3.06-6.88 6.88-6.88 3.8 0 6.88 3.08 6.88 6.88 0 3.72-2.92 6.74-6.62 6.86M17.74 35.88c-3.02 2.02-3.02 5.34 0 7.34 3.44 2.3 9.08 2.3 12.52 0 3.02-2.02 3.02-5.34 0-7.34-3.42-2.3-9.06-2.3-12.52 0"/></svg>
